svg/furkot/mapbox-maki/butcher.svg

<svg viewBox="0 0 512 512" xmlns="http://www.w3.org/2000/svg"><path d="m511.998 200.61c0 46.967-46.523 23.688-46.523 23.688l-38.809 7.033h-51.201c-11.389 26.506-28.942 49.91-51.199 68.265-3.447 13.821-9.507 26.856-17.851 38.4-2.63 3.107-2.082 6.826-2.322 11.264l3.107 78.507c-.256 4.815-4.258 8.576-9.08 8.533-4.008-.086-7.376-3.036-7.987-6.998l-17.066-112.639h-136.533v111.035c0 4.656-3.775 8.431-8.431 8.431-4.004-.063-7.426-2.903-8.227-6.827l-17.476-95.573v-17.066c-16.293.281-32.579-.861-48.673-3.413-.191 18.806-8.596 36.588-23.006 48.673-4.37 2.834-5.053 7.202-4.541 13.176 0 0 6.487 52.292 6.487 52.497 0 4.713-3.822 8.533-8.535 8.533-3.654.011-6.866-2.419-7.85-5.939l-14.575-58.027c-.972-3.521-.281-7.293 1.878-10.24 14.915-23.21-1.673-87.039-1.673-87.039-1.17-3.925-1.813-7.988-1.911-12.083v-82.671c-.361-48.483 47.966-82.291 93.388-65.331 0 0 3.413 1.024 4.846 1.673 43.167 5.915 86.908 6.351 130.184 1.297l6.111-2.116c13.891-5.055 29.118-5.055 43.008 0 2.7.683 5.303 1.703 7.748 3.037 3.423 1.668 6.699 3.621 9.796 5.838 9.225 3.817 19.243 5.328 29.184 4.403h34.133v-34.134l17.066 17.066c17.067-51.199 85.334-34.133 85.334-34.133-22.225.54-42.154 13.826-51.201 34.133l85.334 68.267c1.975-1.125 4.119-1.92 6.349-2.355 5.981.075 10.774 4.975 10.717 10.956z"/></svg>

<svg viewBox="0 0 512 512" xmlns="http://www.w3.org/2000/svg"><path d="M 511.998 200.61 C 511.998 247.577 465.475 224.298 465.475 224.298 L 426.666 231.331 L 375.465 231.331 C 364.076 257.837 346.523 281.241 324.266 299.596 C 320.819 313.417 314.759 326.452 306.415 337.996 C 303.785 341.103 304.333 344.822 304.093 349.26 L 307.2 427.767 C 306.944 432.582 302.942 436.343 298.12 436.3 C 294.112 436.214 290.744 433.264 290.133 429.302 L 273.067 316.663 L 136.534 316.663 L 136.534 427.698 C 136.534 432.354 132.759 436.129 128.103 436.129 L 128.103 436.129 C 124.099 436.066 120.677 433.226 119.876 429.302 L 102.4 333.729 L 102.4 316.663 C 86.107 316.944 69.821 315.802 53.727 313.25 C 53.536 332.056 45.131 349.838 30.721 361.923 C 26.351 364.757 25.668 369.125 26.18 375.099 C 26.18 375.099 32.667 427.391 32.667 427.596 C 32.667 432.309 28.845 436.129 24.132 436.129 C 20.478 436.14 17.266 433.71 16.282 430.19 L 1.707 372.163 C 0.735 368.642 1.426 364.87 3.585 361.923 C 18.5 338.713 1.912 274.884 1.912 274.884 C 0.742 270.959 0.099 266.896 0.001 262.801 L 0.001 180.13 C -0.36 131.647 47.967 97.839 93.389 114.799 C 93.389 114.799 96.802 115.823 98.235 116.472 C 141.402 122.387 185.143 122.823 228.419 117.769 L 234.53 115.653 C 248.421 110.598 263.648 110.598 277.538 115.653 C 280.238 116.336 282.841 117.356 285.286 118.69 C 288.709 120.358 291.985 122.311 295.082 124.528 C 304.307 128.345 314.325 129.856 324.266 128.931 L 358.399 128.931 L 358.399 94.797 L 375.465 111.863 C 392.532 60.664 460.799 77.73 460.799 77.73 C 438.574 78.27 418.645 91.556 409.598 111.863 L 494.932 180.13 C 496.907 179.005 499.051 178.21 501.281 177.775 C 507.262 177.85 512.055 182.75 511.998 188.731 L 511.998 200.61 Z"/></svg>
